X: 5929
T: Cameron's Got His Wife Again
R: strathspey
M: 4/4
K: Dmajor
A|{c}d>B A>F A/A/A AB/c/|d>B A>F E4|
{c}d>B A>F A>g f>e|d>B A<F D3:|
f>d f<a e>g f>e|f>d f<a B2- B>g|
f>d f<a e>g f>e|1 d>B A<F D3g:|2 d>B A<F D4||

